!!!OTL: ES WAR EINMAL EIN REITERSMANN
!!!ARE: Europa, Mitteleuropa, Deutschland, Koenigsberg
!!!SCT: E0195
!!!YEM: Copyright 1995, estate of Helmut Schaffrath.
**kern
*ICvox
*Ivox
*M4/4
*k[b-]
*d:
{4a
=1
4d
4d
4d
8d
8dd
=2
4dd
8dd
8b-
4a
8r}
{8g
=3
4.fn
8e
4d
8e
8fn
=4
8g
8a
8g
8fn
4e
8r}
{8e
=5
4a
4a
4g
4a
=6
4.fn
8e
4d
8e
8fn
=7
8g
8a
8g
8fn
4e}
{4e
=8
4a
4a
4g
4a
=9
4.fn
8e
4d}
==
!!!AGN: erzaehlendes Volks - Lied, Sage, Familien - Geschichte
!!!ONB: ESAC (Essen Associative Code) Database: ERK1
!!!AMT: simple quadruple
!!!AIN: vox
!!!EED: Helmut Schaffrath
!!!EEV: 1.0
*-
